X:5
%%staffsep .6in
%%staffwidth 650
T:望春风 (Longing for the Spring Breeze)
T:(Bass Hulusi in Bb)
C:Composed by 鄧雨賢
C:Arranged by 罗子俊
M:4/4
L:1/8
Q:1/4=75
%%barnumbers 0
%%measurenb 0
V:1 clef=treble
%%jianpu 1
K:Bbmaj
%%visualtranspose -10_of_semitones
B4 d4 | F4 B2 F2 | B4 B4 | cBcd c4 | 
B4 F4 | B4 c2 AG | F4 F4 | B4 B2 B2 | 
c4 d4 | G2 F2 B4 | G4 cd f3/2g/2 | f2 f2 c2 F2 | 
B4 d4 | d4 G4 | F4 F4 | B4 B2 B2 || 
B4 d4 | F4 B2 F2 | B4 B4 | cBcd c4 | 
B4 F4 | B4 c2 AG | F4 F4 | d2 zG B2 GB | 
c4 d4 | G2 F2 B4 | G4 d4 | F2 F2 zFGA | 
B4 d4 | d4 zdfg | f4 G4 | B2 B2 d2 f2 || 
zFBF dFBF | z FBc z FBd | z FBd fcBd | z FAc fcAc | 
z FBF dFBF | z GBc z GcG | z FAd fcAc | z FBd fdBd | 
z Gcf z AcF | zB zc zBdf | z GBG z4 | FcFA cFAc | 
fFBF zGBF | zGcG G4 | zFAd fcAc | B3 B d2 f2 | B8 |]
